polaris-icons/icons/new-icons/HideKeyboardMajor.svg

<svg width="20" height="20" viewBox="0 0 20 20" fill="none" xmlns="http://www.w3.org/2000/svg">
<path d="M4.24063 12.4874L3.19662 13.5314C3.18926 13.5387 3.18164 13.5467 3.17466 13.5542C2.75443 13.0713 2.5 12.4403 2.5 11.7499V8.24989C2.5 6.7311 3.73122 5.49989 5.25 5.49989H11.2281L9.72811 6.99989H5.25C4.55964 6.99989 4 7.55953 4 8.24989V11.7499C4 12.0257 4.08933 12.2806 4.24063 12.4874Z" fill="#4A4A4A"/>
<path d="M8.72811 7.99989L7.60136 9.12664C7.53691 9.01593 7.5 8.88722 7.5 8.74989C7.5 8.33567 7.83579 7.99989 8.25 7.99989H8.72811Z" fill="#4A4A4A"/>
<path d="M12.5 11.2499C12.5 10.8357 12.8358 10.4999 13.25 10.4999H13.75C14.1642 10.4999 14.5 10.8357 14.5 11.2499C14.5 11.6641 14.1642 11.9999 13.75 11.9999H13.25C12.8358 11.9999 12.5 11.6641 12.5 11.2499Z" fill="#4A4A4A"/>
<path d="M14.25 7.99989C13.8358 7.99989 13.5 8.33567 13.5 8.74989C13.5 9.1641 13.8358 9.49989 14.25 9.49989H14.75C15.1642 9.49989 15.5 9.1641 15.5 8.74989C15.5 8.33567 15.1642 7.99989 14.75 7.99989H14.25Z" fill="#4A4A4A"/>
<path fill-rule="evenodd" clip-rule="evenodd" d="M14.5983 4.25091C14.5964 4.25291 14.5944 4.25491 14.5924 4.25689L4.25727 14.592C4.25534 14.594 4.25295 14.5963 4.251 14.5983C3.96393 14.8916 3.96587 15.3621 4.25681 15.653C4.54971 15.9459 5.02458 15.9459 5.31747 15.653L6.47063 14.4999H14.75C16.2688 14.4999 17.5 13.2687 17.5 11.7499V8.24989C17.5 6.95311 16.6024 5.86598 15.3946 5.57586L15.6531 5.31744C15.946 5.02455 15.946 4.54967 15.6531 4.25678C15.3621 3.96586 14.8917 3.9639 14.5983 4.25091ZM14.75 12.9999H7.97063L8.97062 11.9999H11.25C11.6642 11.9999 12 11.6641 12 11.2499C12 10.8357 11.6642 10.4999 11.25 10.4999H10.4706L11.4706 9.49989H11.75C12.1642 9.49989 12.5 9.1641 12.5 8.74989C12.5 8.66591 12.4862 8.58516 12.4607 8.50977L13.9706 6.99989H14.75C15.4404 6.99989 16 7.55953 16 8.24989V11.7499C16 12.4402 15.4404 12.9999 14.75 12.9999Z" fill="#4A4A4A"/>
<path d="M5.25 7.99989C4.83579 7.99989 4.5 8.33567 4.5 8.74989C4.5 9.1641 4.83579 9.49989 5.25 9.49989H5.75C6.16421 9.49989 6.5 9.1641 6.5 8.74989C6.5 8.33567 6.16421 7.99989 5.75 7.99989H5.25Z" fill="#4A4A4A"/>
</svg>

<svg viewBox="0 0 20 20" xmlns="http://www.w3.org/2000/svg"><path d="m4.24 12.487-1.043 1.044a.81.81 0 0 0-.022.023 2.74 2.74 0 0 1-.675-1.804v-3.5a2.75 2.75 0 0 1 2.75-2.75h5.978l-1.5 1.5h-4.478c-.69 0-1.25.56-1.25 1.25v3.5c0 .276.09.53.24.737Z" fill="#5C5F62"/><path d="m8.728 8-1.127 1.127a.75.75 0 0 1 .649-1.127h.478Z" fill="#5C5F62"/><path d="M12.5 11.25a.75.75 0 0 1 .75-.75h.5a.75.75 0 0 1 0 1.5h-.5a.75.75 0 0 1-.75-.75Z" fill="#5C5F62"/><path d="M14.25 8a.75.75 0 0 0 0 1.5h.5a.75.75 0 0 0 0-1.5h-.5Z" fill="#5C5F62"/><path fill-rule="evenodd" d="M14.598 4.25a.276.276 0 0 1-.006.007l-10.335 10.335-.006.006a.75.75 0 0 0 1.066 1.055l1.154-1.153h8.279a2.75 2.75 0 0 0 2.75-2.75v-3.5a2.751 2.751 0 0 0-2.105-2.674l.258-.259a.75.75 0 0 0-1.055-1.066Zm.152 8.75h-6.78l1-1h2.28a.75.75 0 0 0 0-1.5h-.78l1-1h.28a.75.75 0 0 0 .71-.99l1.51-1.51h.78c.69 0 1.25.56 1.25 1.25v3.5c0 .69-.56 1.25-1.25 1.25Z" fill="#5C5F62"/><path d="M5.25 8a.75.75 0 1 0 0 1.5h.5a.75.75 0 0 0 0-1.5h-.5Z" fill="#5C5F62"/></svg>
